X:4196
L:1/8
M:6/8
K:F
 !fermata!d | c2 F AGF | A2 A B2 B | c2 c dcB | c3 !fermata!fzd | c2 F AGF | A2 A !fermata!d2 e | 
 f2 d e2 ^c | d3 d2 =c | d2 B d2 B | c2 A c2 A | A2 G F2 E | D3 !fermata!D2 E | F2 G ABc | 
 d2 e f!fermata!zd | c2 A c2 A | G3 F2 z | f3 F2 F | G2 G A !fermata!d2 | f2 d e2 ^c | d3 D2 ||

